!!!!SEGMENT: pl-cz--ii-257--001_kottritsch-franciszek--sonata-1.krn
!!!cenid: 17xx:933
!!!COM: Kottritsch, Franciszek
!!!COM-rismID: pe30040598
!!!CDT: ~1727-1787
!!!CNT:
!!!OTL: Sonata 1
!!!PDT:
!!!AGN: Secular
!!!SMS-siglum: PL-CZ
!!!SMS-shelfmark: II-257
!!!SMS-shelfwork: 001 W
!!!SMS-variant:
!!!SMS-altvar:
!!!NIFC-rismSourceID: 300000622
!!!NIFC-rismChildID: 300000623
!!!NIFC-islandoraID: pl-cz:33346
!!!URL-pdf-islandora: https://repozytorium.nifc.pl/islandora/object/pl-cz%3A33346/datastream/PDF/view
!!!URL-scan: https://polish.musicsources.pl/pl/lokalizacje/galeria/rekopisy/6787/1 @EN{Scan on Polish Music Sources Website} @PL{Skany w portalu Dziedzictwo Muzyki Polskiej w otwartym dostępie}
!!!ONB-nifc:
!!!AIN: 1 cello 2 clars 2 clrno 2 oboe 2 violn
!!!key: E-
**kern	**dynam	**kern	**dynam	**kern	**dynam	**kern	**dynam	**kern	**dynam	**kern	**kern	**kern	**kern
*part9	*part9	*part8	*part8	*part7	*part7	*part6	*part6	*part5	*part5	*part4	*part3	*part2	*part1
*staff9	*	*staff8	*	*staff7	*	*staff6	*	*staff5	*	*staff4	*staff3	*staff2	*staff1
*I"Baſso.	*	*I"Violino 2.do	*	*I"Violino Primo.	*	*I"Clarino 2 in Dis.	*	*I"Clarino Primo in Dis.	*	*I"Clarinetto Secundo Dis	*I"Clarinetto Primo in B.	*I"Oboe 2.da	*I"Oboe 1.a
*I'B	*	*I'Vn II	*	*I'Vn I	*	*I'Clar II	*	*I'Clar I	*	*I'Cl II in B	*I'Cl I in B	*I'Ob. II	*I'Ob. I
*Icello	*	*Ivioln	*	*Ivioln	*	*Iclrno	*	*Iclrno	*	*Iclars	*Iclars	*Ioboe	*Ioboe
*ICstr	*	*ICstr	*	*ICstr	*	*ICbras	*	*ICbras	*	*ICww	*ICww	*ICww	*ICww
*clefF4	*	*clefG2	*	*clefG2	*	*clefG2	*	*clefG2	*	*clefG2	*clefG2	*clefG2	*clefG2
*	*	*	*	*	*	*ITrd-2c-3	*	*ITrd-2c-3	*	*ITrd1c2	*ITrd1c2	*	*
*k[b-e-a-]	*	*k[b-e-a-]	*	*k[b-e-a-]	*	*k[b-e-a-]	*	*k[b-e-a-]	*	*k[b-e-a-]	*k[b-e-a-]	*k[b-e-a-]	*k[b-e-a-]
*E-:	*	*E-:	*	*E-:	*	*E-:	*	*E-:	*	*E-:	*E-:	*E-:	*E-:
*M3/4	*	*M3/4	*	*M3/4	*	*M3/4	*	*M3/4	*	*M3/4	*M3/4	*M3/4	*M3/4
=1	=1	=1	=1	=1	=1	=1	=1	=1	=1	=1	=1	=1	=1
*2\right	*	*2\right	*	*2\right	*	*2\right	*	*2\right	*	*2\right	*2\right	*2\right	*2\right
!LO:TX:a:t=1.ma	!	!LO:TX:a:t=1.a	!	!LO:TX:a:t=1.ma	!	!	!	!	!	!	!	!	!
!LO:TX:t=P:problem=znaki przykluczowe BB- E- A-	!	!LO:TX:t=P:problem=mixed beam	!	!LO:TX:t=P:problem=mixed beam	!	!LO:TX:a:t=1.ma	!	!LO:TX:a:t=1.ma	!	!LO:TX:b:t=Solo.	!LO:TX:a:t=1mo.	!LO:TX:a:t=1.ma	!LO:TX:a:t=1.ma
!LO:TX:a:t=Adagio	!	!LO:TX:a:t=Adagio	!	!LO:TX:a:t=Adagio	!	!LO:TX:a:t=Adagio	!	!LO:TX:a:t=Adagio	!	!LO:TX:t=P:problem=rzeczywista transpozycja in B	!LO:TX:a:t=adagio	!LO:TX:a:t=Adagio	!LO:TX:a:t=Adagio
8e-\L	.	8ee-\L	.	8ee-\L	.	8e-/L	.	8ee-\L	.	4g\	4ee-\	4g/	4ee-\
8E-\	.	(16e-/L	.	(16e-/L	.	8e-/	.	8ee-\	.	.	.	.	.
.	.	16f/JJ)	.	16f/JJ)	.	.	.	.	.	.	.	.	.
8E-\	.	8e-/L	.	8e-/L	.	8e-/	.	8ee-\	.	4r	4r	4r	4r
8E-\	.	8e-/J	.	8e-/J	.	8e-/J	.	8ee-\J	.	.	.	.	.
8E-\	.	16e-/LL	.	16e-/LL	.	4e-/	.	4ee-\	.	4r	4r	4r	4r
.	.	16g/	.	16g/	.	.	.	.	.	.	.	.	.
8E-\J	.	16f/	.	16f/	.	.	.	.	.	.	.	.	.
.	.	16e-/JJ	.	16e-/JJ	.	.	.	.	.	.	.	.	.
=2	=2	=2	=2	=2	=2	=2	=2	=2	=2	=2	=2	=2	=2
!	!	!	!LO:DY:b:t=sfor.	!	!LO:DY:b:t=sfor.	!	!	!	!	!	!	!	!
8E-\L	.	(4a-/	sf	(4cc\	sf	4r	.	4r	.	4a-\	4cc\	4a-/	(4cc\
8e-\J	.	.	.	.	.	.	.	.	.	.	.	.	.
!	!	!	!	!LO:TX:t=P:problem=mixed beam	!	!	!	!	!	!	!	!	!
4E-\	.	8g/)	.	8b-\L)	.	8r	.	8r	.	4g\	4b-\	4g/	4b-\)
.	.	4e-/	.	8e-/J	.	8e-/L	.	8ee-\L	.	.	.	.	.
4r	.	.	.	16e-/LL	.	8e-/	.	8ee-\	.	4r	4r	4r	4r
.	.	.	.	16g/	.	.	.	.	.	.	.	.	.
.	.	8e-/	.	16f/	.	8e-/J	.	8ee-\J	.	.	.	.	.
.	.	.	.	16e-/JJ	.	.	.	.	.	.	.	.	.
=3	=3	=3	=3	=3	=3	=3	=3	=3	=3	=3	=3	=3	=3
!LO:TX:t=P:problem=mixed beam	!	!	!LO:DY:a:t=sfor.	!	!LO:DY:b:t=sfor.	!	!	!	!	!	!	!	!
8F\L	.	(8f/L	sf	(4a-/	sf	4r	.	4r	.	4f/	4a-\	4f/	(4a-/
8BB-/J	.	8d/J)	.	.	.	.	.	.	.	.	.	.	.
4E-\	.	8e-/	.	16g/LL)	.	8r	.	8r	.	4e-/	4g\	4e-/	4g/)
.	.	.	.	16e-/	.	.	.	.	.	.	.	.	.
.	.	4g/	.	16g/	.	8e-/L	.	8ee-\L	.	.	.	.	.
.	.	.	.	16b-/JJ	.	.	.	.	.	.	.	.	.
4r	.	.	.	16ee-\LL	.	8e-/	.	8ee-\	.	4r	4r	4r	4r
.	.	.	.	16gg\	.	.	.	.	.	.	.	.	.
.	.	8g/	.	16bb-\	.	8e-/J	.	8ee-\J	.	.	.	.	.
.	.	.	.	16gg\JJ	.	.	.	.	.	.	.	.	.
!	!	!	!	!LO:LB:g=original	!	!	!	!	!	!	!	!	!
=4	=4	=4	=4	=4	=4	=4	=4	=4	=4	=4	=4	=4	=4
8BB-/	.	8a-/	.	(16aa-\LL	.	8r	.	8r	.	4f/	2.dd\	4f/	2.dd\
.	.	.	.	16ff\)	.	.	.	.	.	.	.	.	.
8r	.	4a-/	.	(16ff\	.	8b-/	.	8ff\	.	.	.	.	.
.	.	.	.	16dd\JJ)	.	.	.	.	.	.	.	.	.
8D/	.	.	.	(16dd\LL	.	8r	.	8r	.	4a-/	.	4a-/	.
.	.	.	.	16b-\)	.	.	.	.	.	.	.	.	.
8r	.	8a-/	.	(16ff\	.	8b-/	.	8ff\	.	.	.	.	.
.	.	.	.	16dd\JJ)	.	.	.	.	.	.	.	.	.
8BB-/	.	16g/LL	.	16b-/LL	.	8r	.	8r	.	4f/	.	4f/	.
.	.	16f/	.	16a-/	.	.	.	.	.	.	.	.	.
8r	.	16e-/	.	16g/	.	8b-/	.	8ff\	.	.	.	.	.
.	.	16f/JJ	.	16a-/JJ	.	.	.	.	.	.	.	.	.
!LO:LB:g=original	!	!	!	!	!	!LO:LB:g=original	!	!LO:LB:g=original	!	!	!	!	!
=5	=5	=5	=5	=5	=5	=5	=5	=5	=5	=5	=5	=5	=5
4E-\	.	8e-/L	.	16g\LL	.	4ee-\	.	4gg\	.	4g\	4ee-\	4g/	4ee-\
.	.	.	.	16b-\	.	.	.	.	.	.	.	.	.
.	.	16g/L	.	16b-\	.	.	.	.	.	.	.	.	.
.	.	16b-/JJ	.	16ee-\JJ	.	.	.	.	.	.	.	.	.
!	!	!LO:LB:g=original	!	!	!	!	!	!	!	!	!	!	!
4r	.	16g\LL	.	16b-\LL	.	4r	.	4r	.	4r	4r	4r	4r
.	.	16b-\	.	16ee-\	.	.	.	.	.	.	.	.	.
.	.	16b-\	.	16ee-\	.	.	.	.	.	.	.	.	.
.	.	16ee-\JJ	.	16gg\JJ	.	.	.	.	.	.	.	.	.
4r	.	16b-\LL	.	16ee-\LL	.	4r	.	4r	.	4r	4r	4r	4r
.	.	16ee-\	.	16gg\	.	.	.	.	.	.	.	.	.
.	.	16gg\	.	16bb-\	.	.	.	.	.	.	.	.	.
.	.	16ee-\JJ	.	16gg\JJ	.	.	.	.	.	.	.	.	.
!	!	!	!	!	!	!	!	!	!	!	!	!LO:LB:g=original	!
=6	=6	=6	=6	=6	=6	=6	=6	=6	=6	=6	=6	=6	=6
8BB-/	.	8r	.	16aa-\LL	.	8r	.	8r	.	4f/	2.dd\	4f/	2.dd\
.	.	.	.	16ff\	.	.	.	.	.	.	.	.	.
8r	.	4a-/	.	16ff\	.	8b-/	.	8ff\	.	.	.	.	.
.	.	.	.	16dd\JJ	.	.	.	.	.	.	.	.	.
8D/	.	.	.	16dd\LL	.	8r	.	8r	.	4a-/	.	4a-/	.
.	.	.	.	16b-\	.	.	.	.	.	.	.	.	.
8r	.	8a-/	.	16ff\	.	8b-/	.	8ff\	.	.	.	.	.
.	.	.	.	16dd\JJ	.	.	.	.	.	.	.	.	.
8BB-/	.	16g/LL	.	16b-/LL	.	8r	.	8r	.	4f/	.	4f/	.
.	.	16f/	.	16a-/	.	.	.	.	.	.	.	.	.
8r	.	16e-/	.	16g/	.	8b-/	.	8ff\	.	.	.	.	.
.	.	16f/JJ	.	16a-/JJ	.	.	.	.	.	.	.	.	.
!	!	!	!	!	!	!	!	!	!	!	!	!	!LO:LB:g=original
=7	=7	=7	=7	=7	=7	=7	=7	=7	=7	=7	=7	=7	=7
.	.	.	.	8qqa-/	.	.	.	.	.	.	.	.	.
8E-\L	.	8e-/L	.	8g/L	.	8g/L	.	8ee-\L	.	4g/	8ee-\L	4g/	8ee-\L
8G\	.	8B-/J	.	16f/L	.	8b-/J	.	8ff\J	.	.	8b-\J	.	8b-\J
.	.	.	.	16e-/JJ	.	.	.	.	.	.	.	.	.
8B-\	.	4G/	.	4e-/	.	4g/	.	4ee-\	.	4g/	4g\	4g/	4g/
8A-\	.	.	.	.	.	.	.	.	.	.	.	.	.
8G\	.	4r	.	4r	.	4r	.	4r	.	4r	4r	4r	4r
8F\J	.	.	.	.	.	.	.	.	.	.	.	.	.
!	!	!	!	!LO:LB:g=original	!	!	!	!	!	!	!	!	!
=8	=8	=8	=8	=8	=8	=8	=8	=8	=8	=8	=8	=8	=8
!	!	!	!	!	!	!	!	!	!	!LO:TX:t=P:problem=2\right&colon; global	!	!LO:TX:t=P:problem=2\right&colon; global	!
8E-\L	.	16e-/LL	.	(16gg\LL	.	8.e-/L	.	8.ee-\L	.	2.ee-\	2.gg\	2.ee-\	2.gg\
.	.	16B-/	.	16ee-\J)	.	.	.	.	.	.	.	.	.
8E-\	.	16e-/	.	8b-\J	.	.	.	.	.	.	.	.	.
.	.	16B-/JJ	.	.	.	16e-/Jk	.	16ee-\Jk	.	.	.	.	.
8G\	.	16e-/LL	.	8r	.	4e-/	.	4ee-\	.	.	.	.	.
.	.	16B-/	.	.	.	.	.	.	.	.	.	.	.
8B-\	.	16e-/	.	8gg\L	.	.	.	.	.	.	.	.	.
.	.	16B-/JJ	.	.	.	.	.	.	.	.	.	.	.
8e-\	.	16e-/LL	.	8bb-\	.	4r	.	4r	.	.	.	.	.
.	.	16B-/	.	.	.	.	.	.	.	.	.	.	.
8E-\J	.	16e-/	.	8gg\J	.	.	.	.	.	.	.	.	.
.	.	16B-/JJ	.	.	.	.	.	.	.	.	.	.	.
=9	=9	=9	=9	=9	=9	=9	=9	=9	=9	=9	=9	=9	=9
!	!	!	!	!	!	!	!	!LO:TX:a:t=d	!	!	!	!	!
8r	.	16d/LL	.	(16ff\LL	.	8.e-/L	.	8.ee-\L	.	2.dd\	2.ff\	2.dd\	2.ff\
.	.	16B-/	.	16dd\J)	.	.	.	.	.	.	.	.	.
8D\L	.	16d/	.	8b-\J	.	.	.	.	.	.	.	.	.
.	.	16B-/JJ	.	.	.	16e-/Jk	.	16ee-\Jk	.	.	.	.	.
!	!	!LO:LB:g=original	!	!	!	!	!	!	!	!	!	!	!
8F\	.	16d/LL	.	8r	.	4e-/	.	4ee-\	.	.	.	.	.
.	.	16B-/	.	.	.	.	.	.	.	.	.	.	.
8B-\J	.	16d/	.	8ff\L	.	.	.	.	.	.	.	.	.
.	.	16B-/JJ	.	.	.	.	.	.	.	.	.	.	.
!LO:TX:t=P:problem=mixed beam	!	!	!	!	!	!	!	!	!	!	!	!	!
8d\L	.	16d/LL	.	8bb-\	.	4r	.	4r	.	.	.	.	.
.	.	16B-/	.	.	.	.	.	.	.	.	.	.	.
8D/J	.	16d/	.	8ff\J	.	.	.	.	.	.	.	.	.
.	.	16B-/JJ	.	.	.	.	.	.	.	.	.	.	.
!LO:LB:g=original	!	!	!	!	!	!	!	!	!	!	!	!	!
=10	=10	=10	=10	=10	=10	=10	=10	=10	=10	=10	=10	=10	=10
!	!	!LO:TX:t=P:problem=mixed beam	!	!	!	!	!	!	!	!LO:TX:a:t=2	!LO:TX:a:t=2	!	!
4E-\	.	8e-/L	.	(16ff\LL	.	2.r	.	2.r	.	2.r	2.r	2.r	2.r
.	.	.	.	16ee-\)	.	.	.	.	.	.	.	.	.
.	.	16ee-\L	.	16gg|\	.	.	.	.	.	.	.	.	.
.	.	16dd\JJ	.	16ff|\JJ	.	.	.	.	.	.	.	.	.
4E-\	.	16cc\LL	.	(16ee-\LL	.	.	.	.	.	.	.	.	.
.	.	16b-\	.	16dd\)	.	.	.	.	.	.	.	.	.
.	.	16an\	.	16cc|\	.	.	.	.	.	.	.	.	.
.	.	16b-\JJ	.	16dd|\JJ	.	.	.	.	.	.	.	.	.
4En\	.	16a/LL	.	(16cc/LL	.	.	.	.	.	.	.	.	.
.	.	16g/	.	16b-/)	.	.	.	.	.	.	.	.	.
.	.	16f/	.	16an|/	.	.	.	.	.	.	.	.	.
.	.	16g/JJ	.	16cc|/JJ	.	.	.	.	.	.	.	.	.
!	!	!	!	!	!	!	!	!LO:LB:g=original	!	!	!	!	!
=11	=11	=11	=11	=11	=11	=11	=11	=11	=11	=11	=11	=11	=11
.	.	.	.	8qqb-/	.	.	.	.	.	.	.	.	.
8F\L	.	8f/L	.	8an/L	.	4ff\	.	4ff\	.	2.r	2.r	2.r	2.r
8G\	.	8c/J	.	16g/L	.	.	.	.	.	.	.	.	.
.	.	.	.	16f/JJ	.	.	.	.	.	.	.	.	.
8F\	.	4An/	.	4f/	.	8ff\L	.	8ff\L	.	.	.	.	.
8E-\	.	.	.	.	.	8ff\J	.	8ff\J	.	.	.	.	.
8D\	.	4r	.	4r	.	4ff\	.	4ff\	.	.	.	.	.
8C\J	.	.	.	.	.	.	.	.	.	.	.	.	.
!	!	!	!	!	!	!LO:LB:g=original	!	!	!	!LO:LB:g=original	!	!	!
=12	=12	=12	=12	=12	=12	=12	=12	=12	=12	=12	=12	=12	=12
!	!LO:DY:a:t=po	!	!	!	!LO:DY:a:t=po.	!	!	!	!	!	!LO:TX:a:t=Solo	!	!
4BB-/	p	8r	.	8r	p	2.r	.	2.r	.	8.dd\L	8.ff\L	8.dd\L	8.ff\L
!	!	!	!LO:DY:a:t=po.	!	!	!	!	!	!	!	!	!	!
.	.	8B-/L	p	8B-/L	.	.	.	.	.	.	.	.	.
.	.	.	.	.	.	.	.	.	.	16cc\Jk	16ee-\Jk	16cc\Jk	16ee-\Jk
4r	.	8d/	.	8d/	.	.	.	.	.	8b-\L	8dd\L	8b-\L	8dd\L
.	.	8f/J	.	8f/J	.	.	.	.	.	8dd\	8bb-\	8dd\	8bb-\
4F\	.	4b-/	.	4b-/	.	.	.	.	.	8ff\	8aa-\	8ff\	8aa-\
.	.	.	.	.	.	.	.	.	.	8ee-\J	8gg\J	8ee-\J	8gg\J
!	!	!	!	!LO:LB:g=original	!	!	!	!	!	!	!LO:LB:g=original	!	!
=13	=13	=13	=13	=13	=13	=13	=13	=13	=13	=13	=13	=13	=13
4BB-/	.	8r	.	8r	.	2.r	.	2.r	.	8.dd\L	8.ff\L	8.dd\L	8.ff\L
.	.	8B-/L	.	8B-/L	.	.	.	.	.	.	.	.	.
.	.	.	.	.	.	.	.	.	.	16cc\Jk	16ee-\Jk	16cc\Jk	16ee-\Jk
!	!	!	!	!	!	!	!	!	!	!	!	!LO:LB:g=original	!
4r	.	8d/	.	8d/	.	.	.	.	.	(16b-\LL	16dd\LL	16b-\LL	16dd\LL
.	.	.	.	.	.	.	.	.	.	16dd\)	16bb-\	16dd\	16bb-\
.	.	8f/J	.	8f/J	.	.	.	.	.	(16dd\	16bb-\	16dd\	16bb-\
.	.	.	.	.	.	.	.	.	.	16ff\JJ)	16aa-\JJ	16ff\JJ	16aa-\JJ
4F\	.	4b-/	.	4b-/	.	.	.	.	.	(16ff\LL	16aa-\LL	16ff\LL	(16aa-\LL
.	.	.	.	.	.	.	.	.	.	16ee-\)	16gg\	16ee-\	16gg\)
.	.	.	.	.	.	.	.	.	.	(16ee-\	16gg\	16ee-\	(16gg\
.	.	.	.	.	.	.	.	.	.	16dd\JJ)	16ff\JJ	16dd\JJ	16ff\JJ)
!	!	!LO:LB:g=original	!	!	!	!	!	!	!	!	!	!	!LO:LB:g=original
=14	=14	=14	=14	=14	=14	=14	=14	=14	=14	=14	=14	=14	=14
4BB-/	.	2.r	.	2.r	.	2.r	.	2.r	.	8dd\L	8ff\L	8dd\L	8ff\L
.	.	.	.	.	.	.	.	.	.	16cc\L	16ee-\L	16cc\L	16ee-\L
.	.	.	.	.	.	.	.	.	.	16dd\JJ	16ff\JJ	16dd\JJ	16ff\JJ
4r	.	.	.	.	.	.	.	.	.	8ee-\L	8gg\L	8ee-\L	8gg\L
.	.	.	.	.	.	.	.	.	.	8dd\	8ff\	8dd\	8ff\
4BB-/	.	.	.	.	.	.	.	.	.	8cc\	8ee-\	8cc\	8ee-\
.	.	.	.	.	.	.	.	.	.	8b-\J	8dd\J	8b-\J	8dd\J
=15	=15	=15	=15	=15	=15	=15	=15	=15	=15	=15	=15	=15	=15
8F\L	.	4r	.	4r	.	8r	.	8r	.	4b-\	4ddt\	4b-/	4ddt\
8C\J	.	.	.	.	.	16.ff\LL	.	16.ff\LL	.	.	.	.	.
.	.	.	.	.	.	32ff\JJk	.	32ff\JJk	.	.	.	.	.
4FF/	.	8r	.	8r	.	8ff\	.	8ff\	.	4a\	4cc\	4an/	4cc\
.	.	8f/L	.	8an/L	.	8r	.	8r	.	.	.	.	.
!	!	!	!	!	!LO:DY:b:t=for.	!	!	!	!	!	!	!	!
4r	.	8f/	.	8a/	f	4r	.	4r	.	4r	4r	4r	4r
.	.	8g/J	.	8b-/J	.	.	.	.	.	.	.	.	.
=16	=16	=16	=16	=16	=16	=16	=16	=16	=16	=16	=16	=16	=16
!	!	!	!	!	!	!	!	!	!	!	!LO:TX:a:t=1	!	!
4F\	.	16an\LL	.	16cc\LL	.	2.r	.	2.r	.	2.r	2.r	2.r	2.r
.	.	16cc\	.	16ee-\	.	.	.	.	.	.	.	.	.
.	.	16b-\	.	16dd\	.	.	.	.	.	.	.	.	.
.	.	16cc\JJ	.	16ee-\JJ	.	.	.	.	.	.	.	.	.
.	.	8qqdd/	.	8qqff/	.	.	.	.	.	.	.	.	.
4An\	.	8cc\L	.	8ee-\L	.	.	.	.	.	.	.	.	.
.	.	16b-\L	.	16dd\L	.	.	.	.	.	.	.	.	.
.	.	16cc\JJ	.	16ee-\JJ	.	.	.	.	.	.	.	.	.
.	.	8qqdd/	.	8qqff/	.	.	.	.	.	.	.	.	.
4F\	.	8cc/L	.	8ee-\L	.	.	.	.	.	.	.	.	.
.	.	16b-/L	.	16dd\L	.	.	.	.	.	.	.	.	.
.	.	16an/JJ	.	16cc\JJ	.	.	.	.	.	.	.	.	.
!LO:LB:g=original	!	!	!	!	!	!	!	!	!	!	!	!LO:LB:g=original	!
=17	=17	=17	=17	=17	=17	=17	=17	=17	=17	=17	=17	=17	=17
4B-\	.	4b-/	.	4dd\	.	2.r	.	2.r	.	16r	16r	16r	16r
.	.	.	.	.	.	.	.	.	.	16dd\LL	16ff\LL	16dd\LL	16ff\LL
.	.	.	.	.	.	.	.	.	.	16dd\	16bb-\	16dd\	16bb-\
.	.	.	.	.	.	.	.	.	.	16ff\JJ	16aa\JJ	16ff\JJ	16aan\JJ
4r	.	4r	.	4r	.	.	.	.	.	16ee-\LL	16gg\LL	16ee-\LL	16gg\LL
.	.	.	.	.	.	.	.	.	.	16dd\	16ff\	16dd\	16ff\
.	.	.	.	.	.	.	.	.	.	16cc\	16ee-\	16cc\	16ee-\
.	.	.	.	.	.	.	.	.	.	16b-\JJ	16dd\JJ	16b-\JJ	16dd\JJ
8F\L	.	4r	.	4r	.	.	.	.	.	8a\L	16ee-\LL	8an/L	16ee-\LL
.	.	.	.	.	.	.	.	.	.	.	16cc\J	.	16cc\J
8B-\J	.	.	.	.	.	.	.	.	.	8b-\J	8dd\J	8b-/J	8dd\J
!	!	!	!	!	!	!	!	!	!	!LO:LB:g=original	!	!	!
=18	=18	=18	=18	=18	=18	=18	=18	=18	=18	=18	=18	=18	=18
!	!	!	!	!	!	!	!LO:DY:b:t=p.	!	!	!	!	!	!
4F\	.	16an\LL	.	16cc\LL	.	2.ff\	p	2.ff\	.	2.r	2.r	2.r	2.r
.	.	16cc\	.	16ee-\	.	.	.	.	.	.	.	.	.
.	.	16b-\	.	16dd\	.	.	.	.	.	.	.	.	.
.	.	16cc\JJ	.	16ee-\JJ	.	.	.	.	.	.	.	.	.
.	.	8qqdd/	.	8qqff/	.	.	.	.	.	.	.	.	.
4An\	.	8cc\L	.	8ee-\L	.	.	.	.	.	.	.	.	.
.	.	16b-\L	.	16dd\L	.	.	.	.	.	.	.	.	.
.	.	16cc\JJ	.	16ee-\JJ	.	.	.	.	.	.	.	.	.
.	.	8qqdd/	.	8qqff/	.	.	.	.	.	.	.	.	.
4F\	.	8cc/L	.	8ee-\L	.	.	.	.	.	.	.	.	.
.	.	16b-/L	.	16dd\L	.	.	.	.	.	.	.	.	.
.	.	16a/JJ	.	16cc\JJ	.	.	.	.	.	.	.	.	.
!	!	!LO:LB:g=original	!	!LO:LB:g=original	!	!	!	!	!	!	!	!	!LO:LB:g=original
=19	=19	=19	=19	=19	=19	=19	=19	=19	=19	=19	=19	=19	=19
4B-\	.	4b-/	.	4dd\	.	4b-/	.	4ff\	.	16r	16r	16r	16r
.	.	.	.	.	.	.	.	.	.	16dd\LL	16ff\LL	16dd\LL	16ff\LL
.	.	.	.	.	.	.	.	.	.	16ee-\	16gg\	16ee-\	16gg\
.	.	.	.	.	.	.	.	.	.	16ff\JJ	16aa\JJ	16ff\JJ	16aan\JJ
4r	.	4r	.	4r	.	4r	.	4r	.	(16gg\LL	16bb-\LL	(16gg\LL	16bb-\LL
.	.	.	.	.	.	.	.	.	.	16ff\)	16aa\	16ff\)	16aa\
.	.	.	.	.	.	.	.	.	.	(16ff\	16aa\	(16ff\	16aa\
.	.	.	.	.	.	.	.	.	.	16ee-\JJ)	16gg\JJ	16ee-\JJ)	16gg\JJ
!	!	!	!	!	!	!	!	!	!	!	!LO:LB:g=original	!	!
8F\L	.	4r	.	4r	.	4r	.	4r	.	(16ee-\LL	16gg\LL	(16ee-\LL	16gg\LL
.	.	.	.	.	.	.	.	.	.	16dd\)	16ff\	16dd\)	16ff\
8B-\J	.	.	.	.	.	.	.	.	.	(16dd\	16ff\	(16dd\	16ff\
.	.	.	.	.	.	.	.	.	.	16cc\JJ)	16ee-\JJ	16cc\JJ)	16ee-\JJ
=20	=20	=20	=20	=20	=20	=20	=20	=20	=20	=20	=20	=20	=20
!	!	!	!	!	!	!	!	!	!	!LO:TUP:a	!LO:TUP:a	!LO:TX:t=P:problem=ukryta "3"	!LO:TX:t=P:problem=ukryta "3"
*	*	*	*	*	*	*	*	*	*	*	*	*Xtuplet	*Xtuplet
8r	.	2.r	.	2.r	.	2.r	.	2.r	.	(24b-\LL	(24dd\LL	24b-\LL	24dd\LL
.	.	.	.	.	.	.	.	.	.	24a\	24cc\	24an\	24cc\
.	.	.	.	.	.	.	.	.	.	24b-\JJ)	24dd\JJ)	24b-\JJ	24dd\JJ
!LO:TX:t=P:problem=mixed beam	!	!	!	!	!	!	!	!	!	!LO:TUP:a	!LO:TUP:a	!LO:LB:g=original	!LO:TX:t=P:problem=ukryta "3"
8E-\L	.	.	.	.	.	.	.	.	.	(24cc\LL	(24ee-\LL	24cc\LL	24ee-\LL
.	.	.	.	.	.	.	.	.	.	24b-\	24dd\	24b-\	24dd\
.	.	.	.	.	.	.	.	.	.	24cc\JJ)	24ee-\JJ)	24cc\JJ	24ee-\JJ
!	!	!	!	!	!	!	!	!	!	!LO:TUP:a	!LO:TUP:a	!LO:TX:t=P:problem=ukryta "3"	!LO:TX:t=P:problem=ukryta "3"
8F\	.	.	.	.	.	.	.	.	.	(24dd\LL	(24ff\LL	24dd\LL	24ff\LL
.	.	.	.	.	.	.	.	.	.	24cc\	24ee-\	24cc\	24ee-\
.	.	.	.	.	.	.	.	.	.	24dd\JJ)	24ff\JJ)	24dd\JJ	24ff\JJ
!	!	!	!	!	!	!	!	!	!	!LO:TUP:a	!LO:TUP:a	!LO:TX:t=P:problem=ukryta "3"	!LO:TX:t=P:problem=ukryta "3"
8F\	.	.	.	.	.	.	.	.	.	(24ee-\LL	(24gg\LL	24ee-\LL	24gg\LL
.	.	.	.	.	.	.	.	.	.	24dd\	24ff\	24dd\	24ff\
.	.	.	.	.	.	.	.	.	.	24cc\JJ)	24ee-\JJ)	24cc\JJ	24ee-\JJ
8FF/	.	.	.	.	.	.	.	.	.	8b-\L	8dd\L	8b-/L	8dd\L
8FF/J	.	.	.	.	.	.	.	.	.	8a\J	8cc\J	8an/J	8cc\J
!	!	!	!	!	!	!	!	!LO:LB:g=original	!	!	!	!	!
=21	=21	=21	=21	=21	=21	=21	=21	=21	=21	=21	=21	=21	=21
!LO:TX:t=P:problem=mixed beam	!	!	!	!	!	!	!	!	!	!	!	!	!
!	!LO:DY:b:t=for.	!	!	!	!LO:DY:b:t=p.	!	!	!	!LO:DY:b:t=po	!	!	!	!
16B-\LL	f	8b-\	.	8dd\	p	2b-/	.	2ff\	p	4b-\	4dd\	4b-\	4dd\
16BB-/	.	.	.	.	.	.	.	.	.	.	.	.	.
16D/	.	4dd\	.	4ff\	.	.	.	.	.	.	.	.	.
16F/JJ	.	.	.	.	.	.	.	.	.	.	.	.	.
16B-\LL	.	.	.	.	.	.	.	.	.	4r	4r	4r	4r
16d\	.	.	.	.	.	.	.	.	.	.	.	.	.
16f\	.	8b-\	.	8dd\	.	.	.	.	.	.	.	.	.
16d\JJ	.	.	.	.	.	.	.	.	.	.	.	.	.
16e-\LL	.	(16an\LL	.	(16cc\LL	.	16r	.	16r	f	16r	16r	16r	16r
16c\	.	16cc\)	.	16ee-\)	.	16ff\LL	.	16ff\LL	.	16cc|\LL	16aa|\LL	16cc\LL	16aan\LL
!	!	!	!	!	!LO:DY:b:t=fo.	!	!	!	!	!	!	!	!
16A-\	.	16cc|\	.	16ee-|\	f	16ff\	.	16ff\	.	16cc|\	16aa|\	16cc\	16aa\
16F\JJ	.	16cc|\JJ	.	16ee-|\JJ	.	16ff\JJ	.	16ff\JJ	.	16cc|\JJ	16aa|\JJ	16cc\JJ	16aa\JJ
!LO:LB:g=original	!	!	!	!	!	!LO:LB:g=original	!	!	!	!	!	!	!LO:LB:g=original
=22	=22	=22	=22	=22	=22	=22	=22	=22	=22	=22	=22	=22	=22
!LO:TX:t=P:problem=mixed beam	!	!	!	!	!	!	!	!	!	!	!	!	!
!	!	!	!	!	!LO:DY:b:t=p.	!	!	!	!LO:DY:b:t=p.	!	!	!	!
16B-\LL	.	8b-\	.	8dd\	p	2b-/	.	2ff\	p	8dd\	8bb-\	8dd\	8bb-\
16BB-/	.	.	.	.	.	.	.	.	.	.	.	.	.
16D/	.	4dd\	.	4ff\	.	.	.	.	.	8r	8r	8r	8r
16F/JJ	.	.	.	.	.	.	.	.	.	.	.	.	.
16B-\LL	.	.	.	.	.	.	.	.	.	4r	4r	4r	4r
16d\	.	.	.	.	.	.	.	.	.	.	.	.	.
16f\	.	8b-\	.	8dd\	.	.	.	.	.	.	.	.	.
16d\JJ	.	.	.	.	.	.	.	.	.	.	.	.	.
!	!	!	!	!	!	!	!	!	!LO:DY:b:t=fo	!	!	!	!
16e-\LL	.	(16an\LL	.	(16cc\LL	.	16r	.	16r	f	16r	16r	16r	16r
16c\	.	16cc\)	.	16ee-\)	.	16ff\LL	.	16ff\LL	.	16cc|\LL	16aa|\LL	16cc\LL	16aan\LL
!	!	!	!	!	!LO:DY:b:t=fo.	!	!	!	!	!	!	!	!
16A-\	.	16cc|\	.	16ee-|\	f	16ff\	.	16ff\	.	16cc|\	16aa|\	16cc\	16aa\
16F\JJ	.	16cc|\JJ	.	16ee-|\JJ	.	16ff\JJ	.	16ff\JJ	.	16cc|\JJ	16aa|\JJ	16cc\JJ	16aa\JJ
!	!	!	!	!	!	!	!	!	!	!LO:LB:g=original	!	!LO:LB:g=original	!
=23	=23	=23	=23	=23	=23	=23	=23	=23	=23	=23	=23	=23	=23
!LO:TX:t=P:problem=mixed beam	!	!	!	!	!	!	!	!	!	!	!	!	!
8B-\L	.	16b-\LL	.	16dd\LL	.	2.r	.	2.r	.	16b-\LL	(16bb-\LL	16b-\LL	16bb-\LL
.	.	16ee-\	.	16gg\	.	.	.	.	.	16ee-\	16gg\)	16ee-\	(16gg\
8E-\	.	16dd\	.	16ff\	.	.	.	.	.	16dd\	(16ff\	16dd\	16ff\
.	.	16ee-\JJ	.	16gg\JJ	.	.	.	.	.	16ee-\JJ	16gg\JJ)	16ee-\JJ	16gg\JJ)
8F\	.	16dd\LL	.	16ff\LL	.	.	.	.	.	16dd\LL	(16ff\LL	16dd\LL	16ff\LL
.	.	16cc\	.	16ee-\	.	.	.	.	.	16cc\	16ee-\)	16cc\	16ee-\
8F\	.	16b-\	.	16dd\	.	.	.	.	.	16b-\	(16dd\	16b-\	16dd\
.	.	16cc\JJ	.	16ee-\JJ	.	.	.	.	.	16cc\JJ	16ee-\JJ)	16cc\JJ	16ee-\JJ
!	!	!	!	!	!	!	!	!	!	!	!LO:LB:g=original	!	!
!	!	!	!	!	!	!	!	!	!	!LO:TX:t=P:problem=mixed beam	!	!	!
8FF/	.	16b-/LL	.	16dd\LL	.	.	.	.	.	16b-\LL	(16dd\LL	16b-/LL	16dd\LL
.	.	16e-/	.	16cc\	.	.	.	.	.	16e-/	16cc\)	16e-/	16cc\
8FF/J	.	16d/	.	16b-\	.	.	.	.	.	16d/	(16b-\	16d/	16b-\
.	.	16e-/JJ	.	16cc\JJ	.	.	.	.	.	16e-/JJ	16cc\JJ)	16e-/JJ	16cc\JJ
!	!	!LO:LB:g=original	!	!	!	!	!	!	!	!	!	!	!
=24	=24	=24	=24	=24	=24	=24	=24	=24	=24	=24	=24	=24	=24
!LO:TX:t=P:problem=mixed beam	!	!	!	!	!	!	!	!	!	!	!LO:TX:t=P:tr = t:problem	!	!
8BB-/L	.	4e-/	.	4cc\	.	4r	.	4r	.	4e-/	4ccT\	4e-/	4cc\
8B-\J	.	.	.	.	.	.	.	.	.	.	.	.	.
4BB-/	.	4d/	.	4b-\	.	8r	.	8r	.	4d/	4b-\	4d/	4b-\
.	.	.	.	.	.	8b-/L	.	8b-/L	.	.	.	.	.
4r	.	4r	.	4r	.	8b-/	.	8b-/	.	4r	4r	4r	4r
.	.	.	.	.	.	8b-/J	.	8b-/J	.	.	.	.	.
!	!	!	!	!LO:LB:g=original	!	!	!	!	!	!	!	!	!
=25	=25	=25	=25	=25	=25	=25	=25	=25	=25	=25	=25	=25	=25
*tremolo	*	*	*	*	*	*	*	*	*	*	*	*	*
!	!LO:DY:b:t=f.p.	!	!	!	!	!	!LO:DY:a:t=f.p.	!	!LO:DY:a:t=f.p.	!	!	!	!
8BB-/L	fp	8r	.	8r	.	2.b-/	fp	2.b-/	fp	2.dd\	2.bb-\	2.dd\	2.bb-\
8BB-/	.	(16d/LL	.	(16b-\LL	.	.	.	.	.	.	.	.	.
.	.	16e-/JJ)	.	16cc\JJ)	.	.	.	.	.	.	.	.	.
*	*	*tremolo	*	*	*	*	*	*	*	*	*	*	*
*	*	*	*	*tremolo	*	*	*	*	*	*	*	*	*
8BB-/	.	8d/L	.	8b-\L	.	.	.	.	.	.	.	.	.
8BB-/	.	8d/	.	8b-\	.	.	.	.	.	.	.	.	.
8BB-/	.	8d/	.	8b-\	.	.	.	.	.	.	.	.	.
8BB-/J	.	8d/J	.	8b-\J	.	.	.	.	.	.	.	.	.
!	!	!	!	!	!	!	!	!	!	!	!	!	!LO:LB:g=original
=26	=26	=26	=26	=26	=26	=26	=26	=26	=26	=26	=26	=26	=26
!	!	!	!	!	!	!	!LO:DY:a:t=f.p.	!	!LO:DY:a:t=f.p.	!	!	!	!
8BB-/L	fp	8r	.	8r	.	2.b-/	fp	2.b-/	fp	2.ee-\	2.aa\	2.ee-\	2.aan\
8BB-/	.	(16e-/LL	.	(16cc\LL	.	.	.	.	.	.	.	.	.
.	.	16f/JJ)	.	16dd\JJ)	.	.	.	.	.	.	.	.	.
8BB-/	.	8e-/L	.	8cc\L	.	.	.	.	.	.	.	.	.
8BB-/	.	8e-/	.	8cc\	.	.	.	.	.	.	.	.	.
8BB-/	.	8e-/	.	8cc\	.	.	.	.	.	.	.	.	.
8BB-/J	.	8e-/J	.	8cc\J	.	.	.	.	.	.	.	.	.
=27	=27	=27	=27	=27	=27	=27	=27	=27	=27	=27	=27	=27	=27
!	!LO:DY:b:t=f.p.	!	!	!	!	!	!LO:DY:a:t=f.p.	!	!LO:DY:a:t=f.p.	!	!	!	!
8BB-/L	fp	8r	.	8r	.	2.b-/	fp	2.b-/	fp	2.ff\	2.aa-X\	2.ff\	2.aa-X\
8BB-/	.	(16f/LL	.	(16dd\LL	.	.	.	.	.	.	.	.	.
.	.	16g/JJ)	.	16ee-\JJ)	.	.	.	.	.	.	.	.	.
8BB-/	.	8f/L	.	8dd\L	.	.	.	.	.	.	.	.	.
8BB-/	.	8f/	.	8dd\	.	.	.	.	.	.	.	.	.
8BB-/	.	8f/	.	8dd\	.	.	.	.	.	.	.	.	.
8BB-/J	.	8f/J	.	8dd\J	.	.	.	.	.	.	.	.	.
!	!	!	!	!	!	!	!	!LO:LB:g=original	!	!	!	!	!
=28	=28	=28	=28	=28	=28	=28	=28	=28	=28	=28	=28	=28	=28
!	!LO:DY:b:t=fp.	!	!	!	!	!	!	!	!	!	!	!	!
8E-\L	fp	8r	.	8r	.	2.r	.	2.r	.	2.b-\	2.gg\	2.b-\	2.gg\
8E-\	.	(16g/LL	.	(16ee-\LL	.	.	.	.	.	.	.	.	.
.	.	16a-/JJ)	.	16ff\JJ)	.	.	.	.	.	.	.	.	.
8E-\	.	8g/L	.	8ee-\L	.	.	.	.	.	.	.	.	.
8E-\	.	8g/	.	8ee-\	.	.	.	.	.	.	.	.	.
8E-\	.	8g/	.	8ee-\	.	.	.	.	.	.	.	.	.
8E-\J	.	8g/J	.	8ee-\J	.	.	.	.	.	.	.	.	.
*	*	*	*	*Xtremolo	*	*	*	*	*	*	*	*	*
*	*	*Xtremolo	*	*	*	*	*	*	*	*	*	*	*
!LO:LB:g=original	!	!	!	!	!	!LO:LB:g=original	!	!	!	!	!	!LO:LB:g=original	!
=29	=29	=29	=29	=29	=29	=29	=29	=29	=29	=29	=29	=29	=29
!	!LO:DY:b:t=po	!	!	!	!	!	!	!	!	!LO:TX:a:t=2	!LO:TX:a:t=2	!	!
4E-\	p	4g/	.	4ee-\	.	8r	.	8r	.	2.r	2.r	2.r	2.r
.	.	.	.	.	.	16ee-\LL	.	16gg\LL	.	.	.	.	.
.	.	.	.	.	.	16ff\JJ	.	16aa-\JJ	.	.	.	.	.
4r	.	2r	.	4r	.	8ee-\L	.	8gg\L	.	.	.	.	.
.	.	.	.	.	.	8gg\J	.	8bb-\J	.	.	.	.	.
4E-\	.	.	.	4r	.	16gg\LL	.	16bb-\LL	.	.	.	.	.
.	.	.	.	.	.	16ff\	.	16aa-\	.	.	.	.	.
.	.	.	.	.	.	16ff\	.	16aa-\	.	.	.	.	.
.	.	.	.	.	.	16ee-\JJ	.	16gg\JJ	.	.	.	.	.
=30	=30	=30	=30	=30	=30	=30	=30	=30	=30	=30	=30	=30	=30
4B-\	.	2.r	.	2.r	.	4ee-\	.	8gg\L	.	2.r	2.r	2.r	2.r
.	.	.	.	.	.	.	.	16ff\L	.	.	.	.	.
.	.	.	.	.	.	.	.	16gg\JJ	.	.	.	.	.
!LO:TX:t=P:problem=mixed beam	!	!	!	!	!	!	!	!	!	!	!	!	!
8BB-/L	.	.	.	.	.	4b-/	.	4ff\	.	.	.	.	.
8A-\	.	.	.	.	.	.	.	.	.	.	.	.	.
8G\	.	.	.	.	.	4r	.	4r	.	.	.	.	.
8F\J	.	.	.	.	.	.	.	.	.	.	.	.	.
=31	=31	=31	=31	=31	=31	=31	=31	=31	=31	=31	=31	=31	=31
!	!LO:DY:b:t=for.	!LO:TX:t=P:problem=mixed beam	!	!LO:TX:t=P:problem=mixed beam	!	!	!	!	!	!	!	!	!
8E-\L	f	8ee-\L	.	8ee-\L	.	8e-/L	.	8ee-\L	.	4g\	4ee-\	4g/	4ee-\
8E-\	.	16e-/L	.	(16e-/L	.	8e-/	.	8ee-\	.	.	.	.	.
.	.	16f/JJ	.	16f/JJ)	.	.	.	.	.	.	.	.	.
8E-\	.	8e-/L	.	8e-/L	.	8e-/	.	8ee-\	.	4r	4r	4r	4r
8E-\	.	8e-/J	.	8e-/J	.	8e-/J	.	8ee-\J	.	.	.	.	.
8E-\	.	16e-/LL	.	16e-/LL	.	4e-/	.	4ee-\	.	4r	4r	4r	4r
.	.	16g/	.	16g/	.	.	.	.	.	.	.	.	.
8E-\J	.	16f/	.	16f/	.	.	.	.	.	.	.	.	.
.	.	16e-/JJ	.	16e-/JJ	.	.	.	.	.	.	.	.	.
!	!	!LO:LB:g=original	!	!	!	!	!	!	!	!	!	!	!
=32	=32	=32	=32	=32	=32	=32	=32	=32	=32	=32	=32	=32	=32
!	!	!	!LO:DY:b:t=sfor.	!	!LO:DY:b:t=sfor.	!	!	!	!	!	!	!	!
8E-\L	.	(4a-/	sf	(4cc\	sf	4r	.	4r	.	4a-\	4cc\	4a-/	4cc\
8e-\J	.	.	.	.	.	.	.	.	.	.	.	.	.
4E-\	.	8g/)	.	8b-/L)	.	8r	.	8r	.	4g\	4b-\	4g/	4b-\
.	.	4e-/	.	8e-/J	.	8e-/L	.	8ee-\L	.	.	.	.	.
4r	.	.	.	16e-/LL	.	8e-/	.	8ee-\	.	4r	4r	4r	4r
.	.	.	.	16g/	.	.	.	.	.	.	.	.	.
.	.	8e-/	.	16f/	.	8e-/J	.	8ee-\J	.	.	.	.	.
.	.	.	.	16e-/JJ	.	.	.	.	.	.	.	.	.
!	!	!	!	!LO:LB:g=original	!	!LO:LB:g=original	!	!	!	!	!	!	!
=33	=33	=33	=33	=33	=33	=33	=33	=33	=33	=33	=33	=33	=33
!LO:TX:t=P:problem=mixed beam	!	!	!LO:DY:b:t=sfor	!	!LO:DY:b:t=sfor.	!	!	!	!	!	!	!	!
8F\L	.	8f/L	sf	(4a-/	sf	4r	.	4r	.	4f/	4a-\	4f/	4a-/
8BB-/J	.	8d/J	.	.	.	.	.	.	.	.	.	.	.
4E-\	.	8e-/	.	16g/LL)	.	8r	.	8r	.	4e-/	4g\	4e-/	4g/
.	.	.	.	16e-/	.	.	.	.	.	.	.	.	.
.	.	4g/	.	16g/	.	8e-/L	.	8ee-\L	.	.	.	.	.
.	.	.	.	16b-/JJ	.	.	.	.	.	.	.	.	.
4r	.	.	.	16ee-\LL	.	8e-/	.	8ee-\	.	4r	4r	4r	4r
.	.	.	.	16gg\	.	.	.	.	.	.	.	.	.
.	.	8g/	.	16bb-\	.	8e-/J	.	8ee-\J	.	.	.	.	.
.	.	.	.	16gg\JJ	.	.	.	.	.	.	.	.	.
!	!	!	!	!	!	!	!	!LO:LB:g=original	!	!	!	!	!
=34	=34	=34	=34	=34	=34	=34	=34	=34	=34	=34	=34	=34	=34
8BB-/	.	8a-/	.	(16aa-\LL	.	8r	.	8r	.	4f/	2.dd\	4f/	2.dd\
.	.	.	.	16ff\)	.	.	.	.	.	.	.	.	.
8r	.	4a-/	.	(16ff\	.	8b-/	.	8ff\	.	.	.	.	.
.	.	.	.	16dd\JJ)	.	.	.	.	.	.	.	.	.
8D/	.	.	.	16dd\LL	.	8r	.	8r	.	4a-/	.	4a-/	.
.	.	.	.	16b-\	.	.	.	.	.	.	.	.	.
8r	.	8a-/	.	16ff\	.	8b-/	.	8ff\	.	.	.	.	.
.	.	.	.	16dd\JJ	.	.	.	.	.	.	.	.	.
8BB-/	.	16g/LL	.	16b-/LL	.	8r	.	8r	.	4f/	.	4f/	.
.	.	16f/	.	16a-/	.	.	.	.	.	.	.	.	.
8r	.	16e-/	.	16g/	.	8b-/	.	8ff\	.	.	.	.	.
.	.	16f/JJ	.	16a-/JJ	.	.	.	.	.	.	.	.	.
!	!	!	!	!	!	!	!	!	!	!LO:LB:g=original	!	!	!LO:LB:g=original
=35	=35	=35	=35	=35	=35	=35	=35	=35	=35	=35	=35	=35	=35
4E-\	.	8e-/L	.	(16g\LL	.	4ee-\	.	4gg\	.	4g\	4ee-\	4g/	4ee-\
.	.	.	.	16b-\)	.	.	.	.	.	.	.	.	.
.	.	16g/L	.	(16b-\	.	.	.	.	.	.	.	.	.
.	.	16b-/JJ	.	16ee-\JJ)	.	.	.	.	.	.	.	.	.
4r	.	16g\LL	.	(16b-\LL	.	4r	.	4r	.	4r	4r	4r	4r
.	.	16b-\	.	16ee-\)	.	.	.	.	.	.	.	.	.
.	.	16b-\	.	(16ee-\	.	.	.	.	.	.	.	.	.
.	.	16ee-\JJ	.	16gg\JJ)	.	.	.	.	.	.	.	.	.
4r	.	16b-\LL	.	16ee-\LL	.	4r	.	4r	.	4r	4r	4r	4r
.	.	16ee-\	.	16gg\	.	.	.	.	.	.	.	.	.
.	.	16gg\	.	16bb-\	.	.	.	.	.	.	.	.	.
.	.	16ee-\JJ	.	16gg\JJ	.	.	.	.	.	.	.	.	.
!LO:LB:g=original	!	!	!	!	!	!	!	!	!	!	!	!	!
=36	=36	=36	=36	=36	=36	=36	=36	=36	=36	=36	=36	=36	=36
8BB-/	.	8r	.	16aa-\LL	.	8r	.	8r	.	4f\	2.dd\	4f/	2.dd\
.	.	.	.	16ff\	.	.	.	.	.	.	.	.	.
8r	.	4a-/	.	16ff\	.	8b-/	.	8ff\	.	.	.	.	.
.	.	.	.	16dd\JJ	.	.	.	.	.	.	.	.	.
8D/	.	.	.	16dd\LL	.	8r	.	8r	.	4a-\	.	4a-/	.
.	.	.	.	16b-\	.	.	.	.	.	.	.	.	.
8r	.	8a-/	.	16ff\	.	8b-/	.	8ff\	.	.	.	.	.
.	.	.	.	16dd\JJ	.	.	.	.	.	.	.	.	.
8BB-/	.	16g/LL	.	16b-/LL	.	8r	.	8r	.	4f\	.	4f/	.
.	.	16f/	.	16a-/	.	.	.	.	.	.	.	.	.
8r	.	16e-/	.	16g/	.	8b-/	.	8ff\	.	.	.	.	.
.	.	16f/JJ	.	16a-/JJ	.	.	.	.	.	.	.	.	.
!	!	!LO:LB:g=original	!	!LO:LB:g=original	!	!	!	!	!	!	!	!	!
=37	=37	=37	=37	=37	=37	=37	=37	=37	=37	=37	=37	=37	=37
.	.	.	.	8qqa-/	.	.	.	.	.	.	.	.	.
4E-\	.	8e-/L	.	8g/L	.	8g/L	.	8ee-\L	.	4g\	8ee-\L	4g/	8ee-\L
.	.	8B-/J	.	16f/L	.	8b-/J	.	8ff\J	.	.	8b-\J	.	8b-\J
.	.	.	.	16e-/JJ	.	.	.	.	.	.	.	.	.
4r	.	4G/	.	4e-/	.	4g/	.	4ee-\	.	4g\	4g/	4g/	4g/
4r	.	4r	.	4r	.	4r	.	4r	.	4r	4r	4r	4r
!	!	!	!	!	!	!LO:LB:g=original	!	!	!	!	!LO:LB:g=original	!LO:LB:g=original	!
=38	=38	=38	=38	=38	=38	=38	=38	=38	=38	=38	=38	=38	=38
*Xtremolo	*	*	*	*	*	*	*	*	*	*	*	*	*
!	!LO:DY:a:t=po.	!	!LO:DY:b:t=po.	!	!LO:DY:b:t=po.	!	!	!	!	!LO:TX:a:t=4	!LO:TX:a:t=4	!	!
8E-\L	p	8g/L	p	(16ee-\LL	p	2.r	.	2.r	.	2.r	2.r	2.r	2.r
.	.	.	.	16dd-X\JJ)	.	.	.	.	.	.	.	.	.
8E-\	.	8g/	.	4dd-\	.	.	.	.	.	.	.	.	.
8F\	.	8a-/	.	.	.	.	.	.	.	.	.	.	.
8F\	.	8a-/	.	16cc\LL	.	.	.	.	.	.	.	.	.
.	.	.	.	16dd-\JJ	.	.	.	.	.	.	.	.	.
8G\	.	8b-/	.	8ee-\L	.	.	.	.	.	.	.	.	.
8G\J	.	8b-/J	.	8dd-\J	.	.	.	.	.	.	.	.	.
=39	=39	=39	=39	=39	=39	=39	=39	=39	=39	=39	=39	=39	=39
!	!LO:DY:b:t=for.	!	!LO:DY:b:t=for.	!	!LO:DY:b:t=for.	!	!	!	!	!	!	!	!
16r	f	16cc/LL	f	16cc/LL	f	2.r	.	2.r	.	2.r	2.r	2.r	2.r
16A-\LL	.	16a-/	.	16a-/	.	.	.	.	.	.	.	.	.
16G\	.	16g/	.	16g/	.	.	.	.	.	.	.	.	.
16A-\JJ	.	16a-/JJ	.	16a-/JJ	.	.	.	.	.	.	.	.	.
16E-\LL	.	16e-/LL	.	16e-/LL	.	.	.	.	.	.	.	.	.
16A-\	.	16a-/	.	16a-/	.	.	.	.	.	.	.	.	.
16C\	.	16c/	.	16c/	.	.	.	.	.	.	.	.	.
16E-\JJ	.	16e-/JJ	.	16e-/JJ	.	.	.	.	.	.	.	.	.
4AA-/	.	4A-/	.	4A-/	.	.	.	.	.	.	.	.	.
=40	=40	=40	=40	=40	=40	=40	=40	=40	=40	=40	=40	=40	=40
!	!LO:DY:a:t=po	!	!LO:DY:b:t=po	!	!LO:DY:b:t=po.	!	!	!	!	!	!	!	!
8F\L	p	8an/L	p	16ff\LL	p	2.r	.	2.r	.	2.r	2.r	2.r	2.r
.	.	.	.	16ee-\JJ	.	.	.	.	.	.	.	.	.
8F\	.	8a/	.	4ee-\	.	.	.	.	.	.	.	.	.
8G\	.	8b-/	.	.	.	.	.	.	.	.	.	.	.
8G\	.	8b-/	.	16ddn\LL	.	.	.	.	.	.	.	.	.
.	.	.	.	16ee-\JJ	.	.	.	.	.	.	.	.	.
8An\	.	8cc/	.	8ff\L	.	.	.	.	.	.	.	.	.
8A\J	.	8cc/J	.	8ee-\J	.	.	.	.	.	.	.	.	.
!LO:LB:g=original	!	!	!	!LO:LB:g=original	!	!	!	!	!	!	!	!	!
=41	=41	=41	=41	=41	=41	=41	=41	=41	=41	=41	=41	=41	=41
!	!LO:DY:b:t=fo	!	!LO:DY:b:t=fo	!	!LO:DY:a:t=for.	!	!	!	!	!	!	!	!
16r	f	16dd\LL	f	16dd\LL	f	2.r	.	2.r	.	2.r	2.r	2.r	2.r
16B-\LL	.	16b-\	.	16b-\	.	.	.	.	.	.	.	.	.
16An\	.	16an\	.	16an\	.	.	.	.	.	.	.	.	.
16B-\JJ	.	16b-\JJ	.	16b-\JJ	.	.	.	.	.	.	.	.	.
16F\LL	.	16f/LL	.	16f/LL	.	.	.	.	.	.	.	.	.
16B-\	.	16b-/	.	16b-/	.	.	.	.	.	.	.	.	.
16D\	.	16d/	.	16d/	.	.	.	.	.	.	.	.	.
16F\JJ	.	16f/JJ	.	16f/JJ	.	.	.	.	.	.	.	.	.
4BB-/	.	4B-/	.	4B-/	.	.	.	.	.	.	.	.	.
!	!	!LO:LB:g=original	!	!	!	!	!	!	!	!	!	!	!
=42	=42	=42	=42	=42	=42	=42	=42	=42	=42	=42	=42	=42	=42
*tremolo	*	*	*	*	*	*	*	*	*	*	*	*	*
!	!	!	!	!	!	!	!	!	!	!LO:TX:a:t=Solo	!LO:TX:a:t=Solo	!	!
8E-\L	.	8e-/L	.	16e-/LL	.	4e-/	.	2.r	.	8g\L	8ee-\L	8g/L	8ee-\L
.	.	.	.	16g/	.	.	.	.	.	.	.	.	.
8E-\	.	16g/L	.	16b-/	.	.	.	.	.	8b-\J	8gg\J	8b-/J	8gg\J
.	.	16b-/JJ	.	16ee-/JJ	.	.	.	.	.	.	.	.	.
8E-\	.	8b-\L	.	8gg\L	.	4g/	.	.	.	8r	8r	8r	8r
8E-\	.	16cc\L	.	16aa-\L	.	.	.	.	.	8b-\	8gg\	8b-/	8gg\
.	.	16b-\JJ	.	16gg\JJ	.	.	.	.	.	.	.	.	.
8E-\	.	8b-/L	.	8gg\L	.	4e-/	.	.	.	16r	16r	16r	16r
.	.	.	.	.	.	.	.	.	.	16b-\LL	16gg\LL	16b-/LL	16gg\LL
8E-\J	.	16a-/L	.	16ff\L	.	.	.	.	.	16a-\	16ff\	16a-/	16ff\
.	.	16g/JJ	.	16ee-\JJ	.	.	.	.	.	16g\JJ	16ee-\JJ	16g/JJ	16ee-\JJ
=43	=43	=43	=43	=43	=43	=43	=43	=43	=43	=43	=43	=43	=43
!LO:TX:t=P:problem=mixed beam	!	!	!	!	!	!	!	!	!	!	!	!	!
8B-\L	.	4gt/	.	4ee-\	.	8b-/L	.	2.r	.	4g/	4ee-\	4g/	4ee-\
8BB-/J	.	.	.	.	.	16B-/L	.	.	.	.	.	.	.
.	.	.	.	.	.	16B-/JJ	.	.	.	.	.	.	.
8B-\L	.	4f/	.	4dd\	.	4B-/	.	.	.	4f/	4dd\	4f/	4dd\
8A-\	.	.	.	.	.	.	.	.	.	.	.	.	.
!	!	!	!	!	!	!LO:TX:t=P:problem=fragment wykreślony, poprawiony u dołu strony	!	!	!	!	!	!LO:TX:t=P:problem=fragment wykreślony, poprawiony u dołu strony	!LO:TX:t=P:problem=fragment wykreślony, poprawiony u dołu strony
8G\	.	4r	.	4r	.	4r	.	.	.	4r	4r	4r	4r
8F\J	.	.	.	.	.	.	.	.	.	.	.	.	.
=44	=44	=44	=44	=44	=44	=44	=44	=44	=44	=44	=44	=44	=44
!	!	!	!	!	!	!	!LO:DY:b:t=po.	!	!	!	!	!	!
8E-\	.	2.r	.	2.r	.	8e-/L	p	2.r	.	8gg\L	16bb-\LL	8gg\L	16bb-\LL
!	!	!	!	!	!	!	!LO:DY:a:t=po.	!	!	!	!	!	!
.	.	.	.	.	.	.	p	.	.	.	16gg\	.	16gg\
8r	.	.	.	.	.	8e-/	.	.	.	8ee-\J	(16gg\	8ee-\J	(16gg\
.	.	.	.	.	.	.	.	.	.	.	16ee-\JJ)	.	16ee-\JJ)
4r	.	.	.	.	.	8e-/	.	.	.	8r	(16ee-\LL	8r	16ee-\LL
.	.	.	.	.	.	.	.	.	.	.	16gg\)	.	16gg\
.	.	.	.	.	.	8e-/	.	.	.	16r	(16gg\	16r	(16gg\
.	.	.	.	.	.	.	.	.	.	16gg\	16bb-\JJ)	16gg\	16bb-\JJ)
4r	.	.	.	.	.	8e-/	.	.	.	16gg\LL	(16bb-\LL	(16gg\LL	16bb-\LL
.	.	.	.	.	.	.	.	.	.	16ff\	16aa-\)	16ff\)	16aa-\
.	.	.	.	.	.	8e-/J	.	.	.	16ff\	(16aa-\	(16ff\	16aa-\
.	.	.	.	.	.	.	.	.	.	16ee-\JJ	16gg\JJ)	16ee-\JJ)	16gg\JJ
=45	=45	=45	=45	=45	=45	=45	=45	=45	=45	=45	=45	=45	=45
*	*	*	*	*	*	*tremolo	*	*	*	*	*	*	*
8BB-/	.	2.r	.	2.r	.	8B-/L	.	2.r	.	8ff\L	(16aa-\LL	8ff\L	16aa-\LL
.	.	.	.	.	.	.	.	.	.	.	16ff\)	.	16ff\
8r	.	.	.	.	.	8B-/	.	.	.	8dd\J	(16ff\	8dd\J	(16ff\
.	.	.	.	.	.	.	.	.	.	.	16dd\JJ)	.	16dd\JJ)
4r	.	.	.	.	.	8B-/	.	.	.	8r	(16dd\LL	8r	16dd\LL
.	.	.	.	.	.	.	.	.	.	.	16ff\)	.	16ff\
.	.	.	.	.	.	8B-/	.	.	.	16r	(16ff\	16r	(16ff\
.	.	.	.	.	.	.	.	.	.	16ff\	16aa-\JJ)	16ff\	16aa-\JJ)
4r	.	.	.	.	.	8B-/	.	.	.	16ff\LL	(16aa-\LL	(16ff\LL	16aa-\LL
.	.	.	.	.	.	.	.	.	.	16ee-\	16gg\)	16ee-\)	16gg\
.	.	.	.	.	.	8B-/J	.	.	.	16ee-\	(16gg\	(16ee-\	16gg\
.	.	.	.	.	.	.	.	.	.	16dd\JJ	16ff\JJ)	16dd\JJ)	16ff\JJ
*	*	*	*	*	*	*Xtremolo	*	*	*	*	*	*	*
!LO:LB:g=original	!	!	!	!	!	!	!	!	!	!	!	!	!
=46	=46	=46	=46	=46	=46	=46	=46	=46	=46	=46	=46	=46	=46
8E-\L	.	16e-/LL	.	(16g/LL	.	4e-/	.	2.r	.	4ee-\	4gg\	4ee-\	4gg\
.	.	16f/	.	16a-/)	.	.	.	.	.	.	.	.	.
8E-\	.	16f/	.	(16a-/	.	.	.	.	.	.	.	.	.
.	.	16g/JJ	.	16b-/JJ)	.	.	.	.	.	.	.	.	.
!	!	!	!	!	!	!	!	!	!	!	!	!LO:TX:b:t=vi	!
8E-\	.	16g/LL	.	(16b-\LL	.	4r	.	.	.	4r	4r	4r	4r
.	.	16a-/	.	16cc\)	.	.	.	.	.	.	.	.	.
8E-\	.	16a-/	.	(16cc\	.	.	.	.	.	.	.	.	.
.	.	16f/JJ	.	16dd\JJ)	.	.	.	.	.	.	.	.	.
!	!	!	!	!LO:LB:g=original	!	!LO:TX:a:t=vi	!	!	!	!	!	!	!LO:TX:a:t=vi
8E-\	.	16g/LL	.	16ee-\LL	.	4r	.	.	.	4r	4r	4r	4r
.	.	16g/	.	16b-\	.	.	.	.	.	.	.	.	.
8E-\J	.	16a-/	.	16cc\	.	.	.	.	.	.	.	.	.
.	.	16b-/JJ	.	16dd-X\JJ	.	.	.	.	.	.	.	.	.
*Xtremolo	*	*	*	*	*	*	*	*	*	*	*	*	*
!	!	!	!	!	!	!LO:LB:g=original	!	!	!	!LO:LB:g=original	!	!LO:LB:g=original	!LO:LB:g=original
=47	=47	=47	=47	=47	=47	=47	=47	=47	=47	=47	=47	=47	=47
!LO:TX:t=P:problem=mixed beam	!	!	!	!	!	!LO:TX:a:t=de.	!	!	!	!	!	!LO:TX:b:t=de	!LO:TX:b:t=de.
8A-\L	.	16a-\LL	.	16cc\LL	.	8r	.	8r	.	16r	16r	16r	16r
.	.	16cc\	.	16aa-\	.	.	.	.	.	16cc\LL	16aa-\LL	16cc/LL	16aa-\LL
8A-\	.	16b-\	.	16gg\	.	16ee-\LL	.	16gg\LL	.	16b-\	16gg\	16b-/	16gg\
.	.	16a-\JJ	.	16ff\JJ	.	16ff\JJ	.	16aa-\JJ	.	16a-\JJ	16ff\JJ	16a-/JJ	16ff\JJ
8B-\	.	8g/L	.	4ee-\	.	8ee-/L	.	8gg\L	.	8g/L	4ee-\	8g/L	4ee-\
8B-\	.	8g/	.	.	.	8ee-/	.	8gg\	.	8g/J	.	8g/	.
8BB-/	.	8f/	.	4ddt\	.	8b-/	.	8ff\	.	8f/L	4dd\	8f/	4dd\
8BB-/J	.	8f/J	.	.	.	8b-/J	.	8ff\J	.	8f/J	.	8f/J	.
!	!	!LO:LB:g=original	!	!	!	!	!	!LO:LB:g=original	!	!	!LO:LB:g=original	!LO:LB:g=original	!
=48	=48	=48	=48	=48	=48	=48	=48	=48	=48	=48	=48	=48	=48
!LO:TX:t=P:problem=mixed beam	!	!	!	!	!LO:DY:b:t=po.	!	!	!	!	!	!	!	!
16E-\LL	.	8g/	.	8ee-\	p	4g/	.	4ee-\	.	4g\	4ee-\	4g/	4ee-\
16EE-/	.	.	.	.	.	.	.	.	.	.	.	.	.
16GG/	.	4gg\	.	4bb-\	.	.	.	.	.	.	.	.	.
16BB-/JJ	.	.	.	.	.	.	.	.	.	.	.	.	.
16E-\LL	.	.	.	.	.	4r	.	4r	.	4r	4r	4r	4r
16G\	.	.	.	.	.	.	.	.	.	.	.	.	.
16B-\	.	8ee-\	.	8gg\	.	.	.	.	.	.	.	.	.
16G\JJ	.	.	.	.	.	.	.	.	.	.	.	.	.
!	!	!	!	!	!	!LO:N:vis=8	!	!	!	!	!	!	!
16A-\LL	.	(16dd\LL	.	(16ff\LL	.	16r	.	16r	.	16r	16r	16r	16r
!	!	!	!	!	!LO:DY:b:t=for.	!	!	!	!	!	!	!	!
16F\	.	16ff\)	.	16aa-\)	f	16b-/LL	.	16ff\LL	.	16dd\LL	16ff|\LL	16dd\LL	16ff\LL
16D\	.	16ff|\	.	16aa-|\	.	16b-/	.	16ff\	.	16dd\	16ff|\	16dd\	16ff\
16BB-\JJ	.	16ff|\JJ	.	16aa-|\JJ	.	16b-/JJ	.	16ff\JJ	.	16dd\JJ	16ff|\JJ	16dd\JJ	16ff\JJ
!	!	!	!	!	!	!LO:LB:g=original	!	!	!	!	!	!	!
=49	=49	=49	=49	=49	=49	=49	=49	=49	=49	=49	=49	=49	=49
!LO:TX:t=P:problem=mixed beam	!	!	!	!	!LO:DY:b:t=po	!	!	!	!	!	!	!	!
16E-\LL	.	8ee-\	.	8gg\	p	4ee-\	.	4gg\	.	4ee-\	4ee-\	4ee-\	4ee-\
16EE-/	.	.	.	.	.	.	.	.	.	.	.	.	.
16GG/	.	4gg\	.	4bb-\	.	.	.	.	.	.	.	.	.
16BB-/JJ	.	.	.	.	.	.	.	.	.	.	.	.	.
16E-\LL	.	.	.	.	.	4r	.	4r	.	4r	4r	4r	4r
16G\	.	.	.	.	.	.	.	.	.	.	.	.	.
16B-\	.	8ee-\	.	8gg\	.	.	.	.	.	.	.	.	.
16G\JJ	.	.	.	.	.	.	.	.	.	.	.	.	.
!	!	!	!	!	!LO:DY:b:t=for.	!	!	!	!	!	!	!	!
16A-\LL	.	(16dd\LL	.	(16ff\LL	f	16r	.	16r	.	16r	16r	16r	16r
16F\	.	16ff\)	.	16aa-\)	.	16b-/LL	.	16ff\LL	.	16dd\LL	16ff|\LL	16dd\LL	16ff\LL
16D\	.	16ff|\	.	16aa-|\	.	16b-/	.	16ff\	.	16dd\	16ff|\	16dd\	16ff\
16BB-\JJ	.	16ff|\JJ	.	16aa-|\JJ	.	16b-/JJ	.	16ff\JJ	.	16dd\JJ	16ff|\JJ	16dd\JJ	16ff\JJ
!LO:LB:g=original	!	!	!	!LO:LB:g=original	!	!	!	!	!	!	!	!	!
=50	=50	=50	=50	=50	=50	=50	=50	=50	=50	=50	=50	=50	=50
!	!	!LO:TX:t=P:problem=mixed beam	!	!	!LO:DY:b:t=po.	!	!	!	!	!	!	!	!
8E-\	.	16ee-\LL	.	16gg\LL	p	8g/	.	8ee-\	.	4ee-\	4ee-\	4ee-\	4ee-\
.	.	16g/	.	16ee-\	.	.	.	.	.	.	.	.	.
8r	.	16f/	.	16dd\	.	8r	.	8r	.	.	.	.	.
.	.	16g/JJ	.	16ee-\JJ	.	.	.	.	.	.	.	.	.
4r	.	8f/L	.	16dd\LL	.	4r	.	4r	.	4r	4r	4r	4r
.	.	.	.	16cc\	.	.	.	.	.	.	.	.	.
.	.	8a-/J	.	16b-\	.	.	.	.	.	.	.	.	.
.	.	.	.	16cc\JJ	.	.	.	.	.	.	.	.	.
!	!	!	!	!	!	!	!LO:DY:b:t=po	!	!LO:DY:b:t=po	!	!	!	!
4e-\	.	16g/LL	.	16b-/LL	.	8b-/L	p	8ff\L	p	4r	4r	4r	4r
.	.	16f/	.	16a-/	.	.	.	.	.	.	.	.	.
.	.	16e-/	.	16g/	.	8b-/J	.	8ff\J	.	.	.	.	.
.	.	16f/JJ	.	16a-/JJ	.	.	.	.	.	.	.	.	.
!	!	!	!	!	!	!	!	!	!	!	!	!	!LO:LB:g=original
=51	=51	=51	=51	=51	=51	=51	=51	=51	=51	=51	=51	=51	=51
!	!	!	!	!	!	!	!	!	!	!LO:TX:a:t=1	!	!	!
4d\	.	4f/	.	4a-/	.	4b-/	.	4ff\	.	2.r	2.r	2.r	2.r
4e-\	.	4e-/	.	4g/	.	4g/	.	4ee-\	.	.	.	.	.
8r	.	8r	.	8r	.	4r	.	4r	.	.	.	.	.
!	!	!	!	!	!LO:DY:b:t=for.	!	!	!	!	!	!	!	!
8E-\	.	8g/	.	8b-/	f	.	.	.	.	.	.	.	.
!	!	!LO:LB:g=original	!	!	!	!	!	!LO:LB:g=original	!	!	!	!	!
=52	=52	=52	=52	=52	=52	=52	=52	=52	=52	=52	=52	=52	=52
!LO:TX:t=P:problem=mixed beam	!	!	!	!	!	!	!	!	!	!	!	!	!
8A-\L	.	8a-/L	.	16cc/LL	.	16r	.	16r	.	16r	16r	16r	16r
!	!	!	!	!	!	!	!LO:DY:b:t=fo.	!	!LO:DY:b:t=for.	!	!	!	!
.	.	.	.	16a-/	.	16ff\LL	f	16aa-\LL	f	16cc\LL	16aa-\LL	16cc/LL	16aa-\LL
8A-\	.	16g/L	.	16g/	.	16ee-\	.	16gg\	.	16b-\	16gg\	16b-/	16gg\
.	.	16f/JJ	.	16f/JJ	.	16b-\JJ	.	16ff\JJ	.	16a-\JJ	16ff\JJ	16a-/JJ	16ff\JJ
8B-\	.	8e-/L	.	4g/	.	8ee-/L	.	8gg\L	.	8g/L	8ee-|\L	8g/L	8ee-\L
8B-\	.	8e-/J	.	.	.	8ee-/	.	8gg\	.	8g/J	8ee-|\J	8g/	8ee-\
8BB-/	.	8d/L	.	4f/	.	8b-/	.	8ff\	.	8f/L	8dd|\L	8f/	8dd\
8BB-/J	.	8d/J	.	.	.	8b-/J	.	8ff\J	.	8f/J	8dd|\J	8f/J	8dd\J
!	!	!	!	!	!	!	!	!	!	!	!	!LO:LB:g=original	!
=53	=53	=53	=53	=53	=53	=53	=53	=53	=53	=53	=53	=53	=53
.	.	4qqd/	.	4qqf/	.	.	.	.	.	8qqf/	8qqdd/	4qqf/	4qqdd/
2E-\	.	2e-/	.	2e-/	.	2g/	.	2ee-\	.	2e-/	2ee-\	2e-/	2ee-\
4r	.	4r	.	4r	.	4r	.	4r	.	4r	4r	4r	4r
==	==	==	==	==	==	==	==	==	==	==	==	==	==
*-	*-	*-	*-	*-	*-	*-	*-	*-	*-	*-	*-	*-	*-
!!!RDF**kern: | = vertical stroke
!!!system-decoration: [(s1,s2,s3,s4)][(s5,s6)][(s7,s8)][(s9)]
!!!ENC: Marcin Jachim
!!!END: 2020-08-20
!!!ENC: Urszula Świątek
!!!END: 2022-02-25
!!!YEC: Copyright 2022 Narodowy Instytut Fryderyka Chopina (https://polishscores.org)
!!!YEM: License CC-BY-4.0 (https://creativecommons.org/licenses/by/4.0)
